src/main/resources/icons/AllIcons/nodes/weblistener.svg

<!-- Copyright 2000-2021 JetBrains s.r.o. Use of this source code is governed by the Apache 2.0 license that can be found in the LICENSE file. -->
<svg xmlns="http://www.w3.org/2000/svg" xmlns:xlink="http://www.w3.org/1999/xlink" width="16" height="16" viewBox="0 0 16 16">
  <defs>
    <path id="weblistener-a" d="M12,7.33743046 L12,11.4625695 C11.2516738,12.9099376 9.74075487,13.9 8,13.9 C6.25924513,13.9 4.74832618,12.9099376 4,11.4625695 L4,7.33743046 C4.74832618,5.89006244 6.25924513,4.9 8,4.9 C9.74075487,4.9 11.2516738,5.89006244 12,7.33743046 Z M7,12.865 C5.58928571,12.6704115 4.5,11.3360905 4.5,9.71584362 C4.5,9.46962963 4.52857143,9.23532922 4.575,9.005 L6.28571429,10.9072016 L6.28571429,11.304321 C6.28571429,11.7411523 6.60714286,12.0985597 7,12.0985597 L7,12.865 Z M10.625,11.595 C10.5166667,11.2532813 10.2083333,11.0085938 9.83333333,11.0085938 L9.41666667,11.0085938 L9.41666667,9.74296875 C9.41666667,9.5109375 9.22916667,9.32109375 9,9.32109375 L6.5,9.32109375 L6.5,8.47734375 L7.33333333,8.47734375 C7.5625,8.47734375 7.75,8.2875 7.75,8.05546875 L7.75,7.21171875 L8.58333333,7.21171875 C9.04166667,7.21171875 9.41666667,6.83203125 9.41666667,6.36796875 L9.41666667,6.195 C10.6375,6.69703125 11.5,7.9078125 11.5,9.32109375 C11.5,10.1985938 11.1666667,10.9959375 10.625,11.595 Z"/>
  </defs>
  <g fill="none" fill-rule="evenodd">
    <path fill="#9AA7B0" fill-opacity=".8" d="M2.29423169,6 C2.93029835,3.07250078 4.65328522,1 7.997,1 C11.7972283,1 13.2866644,3.07250078 13.7840501,6 L15,6 L15,11.8140055 L13,11.8140055 L13,8.998 C12.998,5.143 11.854,2 7.997,2 C4.146,2 3.002,5.143 3,8.998 L3,11.8140055 L1,11.8140055 L1,6 L2.29423169,6 Z"/>
    <use fill="#9AA7B0" fill-opacity=".8" xlink:href="#weblistener-a"/>
  </g>
</svg>

<svg xmlns="http://www.w3.org/2000/svg" xmlns:xlink="http://www.w3.org/1999/xlink" width="16" height="16" viewBox="0 0 16 16"><rect id="frame" width="16" height="16" fill="none"/><defs><path id="a" d="M12 7.337v4.126a4.501 4.501 0 0 1-8 0V7.337a4.501 4.501 0 0 1 8 0zm-5 5.528c-1.41-.195-2.5-1.529-2.5-3.15 0-.245.029-.48.075-.71l1.71 1.902v.397c0 .437.322.795.715.795v.766zm3.625-1.27a.828.828 0 0 0-.792-.586h-.416V9.743A.42.42 0 0 0 9 9.321H6.5v-.844h.833a.42.42 0 0 0 .417-.422v-.843h.833c.459 0 .834-.38.834-.844v-.173A3.377 3.377 0 0 1 11.5 9.321a3.38 3.38 0 0 1-.875 2.274z"/></defs><g fill="#9AA7B0" fill-rule="evenodd" fill-opacity=".8"><path d="M2.294 6c.636-2.927 2.36-5 5.703-5 3.8 0 5.29 2.073 5.787 5H15v5.814h-2V8.998C12.998 5.143 11.854 2 7.997 2 4.146 2 3.002 5.143 3 8.998v2.816H1V6h1.294z"/><use xlink:href="#a"/></g></svg>
